X:16069
T:Stuart's Reel. HSJJ.120
M:4/4
L:1/8
Q:200
S:HSJ Jackson,Wyresdale,Lancs.1823
R:Reel
O:England
A:Lancashire
H:1823
Z:Chris Partington.
K:G
B/c/d e/f/gd2B2|cAfA cAfA|B/c/d e/f/gd2B2|cA fe/f/g2G2:|!
|:BG G/G/G BGBG|AD D/D/D ADAD|BG G/G/G BGBG|AD D/D/Dg2G2:|]
